X: 7156
T: Chuir Iad Mise Dh'Eilean Leam Fhin
R: waltz
M: 3/4
K: Eminor
B2 E4|G2 B4|B2 E2 G2|B6|
A2 D4|F2 A4|A2 D2 F2|A6|
G2 E4|G2 B4|B2 E2 G2|B6|
B2 e4|d2 B4|A2 D2 F2|A6||

